src/assets/images/svg/bnb.svg

<svg width="16" height="16" viewBox="0 0 16 16" fill="none" xmlns="http://www.w3.org/2000/svg">
<path d="M3.70337 5.61354C4.08137 6.04028 4.74056 6.06096 5.14456 5.65875L8 2.816L10.8563 5.6596C11.26 6.06149 11.9185 6.0412 12.2967 5.61523C12.645 5.22297 12.6273 4.62729 12.2564 4.25639L8 0L3.74446 4.25554C3.37386 4.62614 3.35586 5.22121 3.70337 5.61354ZM0.707106 7.29289C0.316582 7.68342 0.316583 8.31658 0.707107 8.70711L1.10089 9.10089C1.49142 9.49142 2.12458 9.49142 2.51511 9.10089L2.90889 8.70711C3.29942 8.31658 3.29942 7.68342 2.90889 7.29289L2.51511 6.89911C2.12458 6.50858 1.49142 6.50858 1.10089 6.89911L0.707106 7.29289ZM5.14364 10.3438C4.74043 9.94051 4.08074 9.96043 3.7026 10.3873C3.35552 10.7792 3.3735 11.3735 3.74364 11.7436L8 16L12.2571 11.7429C12.6276 11.3724 12.6453 10.7774 12.2974 10.3856C11.9191 9.95944 11.2601 9.93984 10.8571 10.3427L7.9992 13.2L5.14364 10.3438ZM13.0911 7.29289C12.7006 7.68342 12.7006 8.31658 13.0911 8.70711L13.4849 9.10089C13.8754 9.49142 14.5086 9.49142 14.8991 9.10089L15.2929 8.70711C15.6834 8.31658 15.6834 7.68342 15.2929 7.29289L14.8991 6.89911C14.5086 6.50858 13.8754 6.50858 13.4849 6.89911L13.0911 7.29289ZM9.12742 8.70551C9.51751 8.31491 9.5173 7.6821 9.12696 7.29176L8.70711 6.87191C8.31658 6.48138 7.68342 6.48138 7.29289 6.87191L6.87323 7.29157C6.48312 7.68167 6.48264 8.31401 6.87215 8.70471L7.29163 9.12547C7.68216 9.51719 8.31652 9.51747 8.70739 9.12609L9.12742 8.70551Z" fill="#DCAC50"/>
</svg>

<svg width="16" height="16" fill="none" xmlns="http://www.w3.org/2000/svg"><path d="M3.703 5.614a.991.991 0 001.442.045L8 2.816l2.856 2.844a.991.991 0 001.4-1.404L8 0 3.744 4.256a.991.991 0 00-.04 1.358zM.707 7.293a1 1 0 000 1.414l.394.394a1 1 0 001.414 0l.394-.394a1 1 0 000-1.414l-.394-.394a1 1 0 00-1.414 0l-.394.394zm4.437 3.05a.99.99 0 10-1.4 1.4L8 16l4.257-4.257a.99.99 0 00-1.4-1.4L8 13.2l-2.855-2.856zm7.947-3.05a1 1 0 000 1.414l.394.394a1 1 0 001.414 0l.394-.394a1 1 0 000-1.414l-.394-.394a1 1 0 00-1.414 0l-.394.394zM9.127 8.706a1 1 0 000-1.414l-.42-.42a1 1 0 00-1.414 0l-.42.42a1 1 0 000 1.413l.419.42a1 1 0 001.415.001l.42-.42z" fill="#DCAC50"/></svg>
